X: 61
T: Montezuma
P: piffero primo a0579
O: Bruce & Emmet
%R: hornpipe, reel
F: http://ancients.sudburymuster.org/mus/sng/pdf/montezumaC0.pdf
Z: 2020 John Chambers <jc:trillian.mit.edu>
M: 2/4
L: 1/16
K: D
fg |\
afge fdec | dfec A2AG | FAdf gfed | cdec A2fg |\
afge fdec |
dfec A2AG | FAdf gedc | d2d2 d2 :: cd |\
eAAA eAeA | eAfA eAfa |
gfed dcBA | BGEG TB2AG |\
FAdc BBed | cABc defg | afbg fedc | d2d2 d2 :|


